.local/share/icons/Gruvbox-Plus-Dark/actions/16/object-ungroup-pop-selection.svg

<svg width="16" height="16" version="1.1" xmlns="http://www.w3.org/2000/svg">
  <defs>
    <style id="current-color-scheme" type="text/css">.ColorScheme-Text { color:#ebdbb2; } .ColorScheme-Highlight { color:#458588; }</style>
  </defs>
  <path class="ColorScheme-Text" d="m3 5c-1.108 0-2 0.892-2 2v6c0 1.108 0.892 2 2 2h6c1.108 0 2-0.892 2-2v-2h-2v2h-6v-6h2v-2z" fill="currentColor" opacity=".3"/>
  <path class="ColorScheme-Text" d="m6 0c-2 0-2 2-2 2v2h2v-2h2v-2h-2zm6 0v2h2v2h2v-2c0-2-2-2-2-2h-2zm-2 3c-1.657 0-3 1.343-3 3s1.343 3 3 3 3-1.343 3-3-1.343-3-3-3zm-6 5v2c0 2 2 2 2 2h2v-2h-2v-2h-2zm10 0v2h-2v2h2c2 0 2-2 2-2v-2h-2z" fill="currentColor"/>
</svg>

<svg xmlns="http://www.w3.org/2000/svg" width="16" height="16" version="1.1">
 <defs>
  <style id="current-color-scheme" type="text/css">
   .ColorScheme-Text { color:#565656; } .ColorScheme-Highlight { color:#4285f4; }
  </style>
 </defs>
 <path style="fill:currentColor;opacity:0.3" class="ColorScheme-Text" d="M 2 4 C 0.892 4 0 4.892 0 6 L 0 14 C 0 15.108 0.892 16 2 16 L 10 16 C 11.108 16 12 15.108 12 14 L 12 13 L 11 13 L 11 11 L 9 11 L 9 13 L 3 13 L 3 7 L 5 7 L 5 5 L 3 5 L 3 4 L 2 4 z"/>
 <path style="fill:currentColor" class="ColorScheme-Text" d="M 6,0 C 4,0 4,2 4,2 V 4 H 6 V 2 H 8 V 0 Z M 12,0 V 2 H 14 V 4 H 16 V 2 C 16,0 14,0 14,0 Z M 4,8 V 10 C 4,12 6,12 6,12 H 8 V 10 H 6 V 8 Z M 14,8 V 10 H 12 V 12 H 14 C 16,12 16,10 16,10 V 8 Z M 14,6 A 4,4 0 0 1 10,10 4,4 0 0 1 6,6 4,4 0 0 1 10,2 4,4 0 0 1 14,6 Z"/>
</svg>
